X:1
T:Title
%%score { 1 | 2 }
L:1/8
Q:1/4=100
M:4/4
K:Bb
V:1 treble nm="Grand Piano"
V:2 bass 
V:1
 [DF]>[DF] [DF]>[DF] [DF]>[DB] [Ec]>[DB] | [EB]2 [EA]2 [EA]4 | F>A A>A A>c d>c | %3
w: E.~S.~Lorenz * * * * * * *|||
 [Ec]2 [DB]2 [DB]4 | [DF]>[DB] [DB]>[DB] [DB]>[Fd] [Ge]>[Fd] | c2 c2 G2 AB | %6
w: |||
 [=Ec]2 [Ec]2 [Ec]>[EG] [FA]>[GB] |[M:5/4] [CFA]2 [B,=EG]2 [A,F]6 | %8
w: ||
[M:4/4] [B,DF]2 [DB]2 [DB]2 [Fd]2 | [Fc]>[Fc] [FB]>c d4 | e>e e>d c>c c>[DGB] | %11
w: |||
 [CFA]>[CFA] [B,=EG]>[B,EG] [A,F]4 | [B,DF]2 [DB]2 [DB]2 [Fd]2 | [Fc]>[Fc] [FB]>c d4 | %14
w: |||
 [Ge]>[Ge] [Ge]>[GB] [Fd]>[Fd] [Fd]>c | B2 A2 [DB]4 |] %16
w: ||
V:2
 [B,,B,]>[B,,B,] [B,,B,]>[B,,B,] [B,,B,]>[B,,F,] [B,,F,]>[B,,F,] | [C,F,]2 [C,F,]2 [C,F,]4 | %2
 [F,A,E]>[F,CE] [F,CE]>[F,CE] [F,CE]>[F,A,E] [F,A,F]>[F,E] | [B,,F,]2 [B,,F,]2 [B,,F,]4 | %4
 [B,,F,]>[B,,F,] [B,,F,]>[B,,F,] [B,,F,]>[B,,B,] [B,,B,]>[B,,B,] | %5
 [E,G,E]2 [E,G,E]2 [E,B,E]2 [E,A,E][E,G,E] | [C,G,]2 [C,G,]2 [C,G,]>[C,C] [C,C]>[C,C] | %7
[M:5/4] F,2 C,2 F,6 |[M:4/4] B,,2 [B,,F,]2 [B,,F,]2 [B,,B,]2 | %9
 [F,A,]>[F,A,] [D,B,]>[K:treble][F,A,F] [B,F]4 | %10
 [F,CF]>[F,CF] [F,CF]>[K:bass][F,B,F] [F,A,F]>[F,A,F] [F,A,F]>B,, | C,>C, C,>C, F,4 | %12
 B,,2 [B,,F,]2 [B,,F,]2 [B,,B,]2 | [F,A,]>[F,A,] [D,B,]>[K:treble][F,A,F] [B,F]4 | %14
 [E,B,]>[E,B,] [E,B,]>[E,B,] [B,,B,]>[B,,B,] [B,,B,]>[E,G,E] | [F,D]2 [F,C]2 [B,,F,]4 |] %16

